apps/small/homerun.svg

<?xml version="1.0" encoding="UTF-8" standalone="no"?>
<!-- Created with Inkscape (http://www.inkscape.org/) -->

<svg
   xmlns:dc="http://purl.org/dc/elements/1.1/"
   xmlns:cc="http://creativecommons.org/ns#"
   xmlns:rdf="http://www.w3.org/1999/02/22-rdf-syntax-ns#"
   xmlns:svg="http://www.w3.org/2000/svg"
   xmlns="http://www.w3.org/2000/svg"
   xmlns:sodipodi="http://sodipodi.sourceforge.net/DTD/sodipodi-0.dtd"
   xmlns:inkscape="http://www.inkscape.org/namespaces/inkscape"
   width="22"
   height="22"
   id="svg2"
   version="1.1"
   inkscape:version="0.48+devel r"
   viewBox="0 0 22 22"
   sodipodi:docname="homerun.svg">
  <defs
     id="defs4" />
  <sodipodi:namedview
     id="base"
     pagecolor="#ffffff"
     bordercolor="#666666"
     borderopacity="1.0"
     inkscape:pageopacity="0.0"
     inkscape:pageshadow="2"
     inkscape:zoom="25.212092"
     inkscape:cx="8.4388916"
     inkscape:cy="9.8328242"
     inkscape:document-units="px"
     inkscape:current-layer="layer1"
     showgrid="true"
     units="px"
     inkscape:showpageshadow="false"
     inkscape:window-width="1366"
     inkscape:window-height="669"
     inkscape:window-x="-4"
     inkscape:window-y="25"
     inkscape:window-maximized="1"
     showguides="true">
    <inkscape:grid
       type="xygrid"
       id="grid4101" />
    <sodipodi:guide
       position="2,20.000017"
       orientation="18,0"
       id="guide4107" />
    <sodipodi:guide
       position="2,2.0000174"
       orientation="0,18"
       id="guide4109" />
    <sodipodi:guide
       position="20,2.0000174"
       orientation="-18,0"
       id="guide4111" />
    <sodipodi:guide
       position="20,20.000017"
       orientation="0,-18"
       id="guide4113" />
    <sodipodi:guide
       position="3,19.000017"
       orientation="16,0"
       id="guide4115" />
    <sodipodi:guide
       position="3,3.0000174"
       orientation="0,16"
       id="guide4117" />
    <sodipodi:guide
       position="19,3.0000174"
       orientation="-16,0"
       id="guide4119" />
    <sodipodi:guide
       position="19,19.000017"
       orientation="0,-16"
       id="guide4121" />
    <sodipodi:guide
       position="10,6.0000174"
       orientation="-7,0"
       id="guide4162" />
    <sodipodi:guide
       position="11,12.000017"
       orientation="5,0"
       id="guide4280" />
    <sodipodi:guide
       position="11,7.0000174"
       orientation="0,5"
       id="guide4282" />
    <sodipodi:guide
       position="16,7.0000174"
       orientation="-5,0"
       id="guide4284" />
    <sodipodi:guide
       position="16,12.000017"
       orientation="0,-5"
       id="guide4286" />
    <sodipodi:guide
       position="5,13.000017"
       orientation="6,0"
       id="guide4294" />
    <sodipodi:guide
       position="5,7.0000174"
       orientation="0,6"
       id="guide4296" />
    <sodipodi:guide
       position="11,7.0000174"
       orientation="-6,0"
       id="guide4298" />
  </sodipodi:namedview>
  <metadata
     id="metadata7">
    <rdf:RDF>
      <cc:Work
         rdf:about="">
        <dc:format>image/svg+xml</dc:format>
        <dc:type
           rdf:resource="http://purl.org/dc/dcmitype/StillImage" />
        <dc:title />
      </cc:Work>
    </rdf:RDF>
  </metadata>
  <g
     inkscape:label="Capa 1"
     inkscape:groupmode="layer"
     id="layer1"
     transform="translate(0,-1030.3622)">
    <path
       style="opacity:1;fill:#424854;fill-opacity:1;stroke:none;stroke-width:0.1;stroke-miterlimit:4;stroke-dasharray:none;stroke-opacity:1"
       d="m 3,4 0,1 0,1 16,0 0,-1 0,-1 z m 0,6 0,1 0,1 7,0 0,-1 0,-1 z m 9,0 0,3 3,0 0,-3 z m 4,0 0,3 3,0 0,-3 z m -4,5 0,3 3,0 0,-3 z m 4,0 0,3 3,0 0,-3 z m -13,1 0,1 0,1 7,0 0,-1 0,-1 z"
       transform="translate(0,1030.3622)"
       id="rect4156"
       inkscape:connector-curvature="0"
       sodipodi:nodetypes="ccccccccccccccccccccccccccccccccccccccccc" />
  </g>
</svg>

<?xml version="1.0" encoding="UTF-8" standalone="no"?>
<!-- Created with Inkscape (http://www.inkscape.org/) -->

<svg
   xmlns:dc="http://purl.org/dc/elements/1.1/"
   xmlns:cc="http://creativecommons.org/ns#"
   xmlns:rdf="http://www.w3.org/1999/02/22-rdf-syntax-ns#"
   xmlns:svg="http://www.w3.org/2000/svg"
   xmlns="http://www.w3.org/2000/svg"
   xmlns:sodipodi="http://sodipodi.sourceforge.net/DTD/sodipodi-0.dtd"
   xmlns:inkscape="http://www.inkscape.org/namespaces/inkscape"
   width="22"
   height="22"
   id="svg2"
   version="1.1"
   inkscape:version="0.48+devel r"
   viewBox="0 0 22 22"
   sodipodi:docname="homerun.svg">
  <defs
     id="defs4" />
  <sodipodi:namedview
     id="base"
     pagecolor="#ffffff"
     bordercolor="#666666"
     borderopacity="1.0"
     inkscape:pageopacity="0.0"
     inkscape:pageshadow="2"
     inkscape:zoom="25.212092"
     inkscape:cx="9.9064414"
     inkscape:cy="10.983066"
     inkscape:document-units="px"
     inkscape:current-layer="layer1"
     showgrid="true"
     units="px"
     inkscape:showpageshadow="false"
     inkscape:window-width="1366"
     inkscape:window-height="669"
     inkscape:window-x="-4"
     inkscape:window-y="25"
     inkscape:window-maximized="1"
     showguides="true">
    <inkscape:grid
       type="xygrid"
       id="grid4101" />
    <sodipodi:guide
       position="2,20.000017"
       orientation="18,0"
       id="guide4107" />
    <sodipodi:guide
       position="2,2.0000174"
       orientation="0,18"
       id="guide4109" />
    <sodipodi:guide
       position="20,2.0000174"
       orientation="-18,0"
       id="guide4111" />
    <sodipodi:guide
       position="20,20.000017"
       orientation="0,-18"
       id="guide4113" />
    <sodipodi:guide
       position="3,19.000017"
       orientation="16,0"
       id="guide4115" />
    <sodipodi:guide
       position="3,3.0000174"
       orientation="0,16"
       id="guide4117" />
    <sodipodi:guide
       position="19,3.0000174"
       orientation="-16,0"
       id="guide4119" />
    <sodipodi:guide
       position="19,19.000017"
       orientation="0,-16"
       id="guide4121" />
    <sodipodi:guide
       position="10,6.0000174"
       orientation="-7,0"
       id="guide4162" />
    <sodipodi:guide
       position="11,12.000017"
       orientation="5,0"
       id="guide4280" />
    <sodipodi:guide
       position="11,7.0000174"
       orientation="0,5"
       id="guide4282" />
    <sodipodi:guide
       position="16,7.0000174"
       orientation="-5,0"
       id="guide4284" />
    <sodipodi:guide
       position="16,12.000017"
       orientation="0,-5"
       id="guide4286" />
    <sodipodi:guide
       position="5,13.000017"
       orientation="6,0"
       id="guide4294" />
    <sodipodi:guide
       position="5,7.0000174"
       orientation="0,6"
       id="guide4296" />
    <sodipodi:guide
       position="11,7.0000174"
       orientation="-6,0"
       id="guide4298" />
  </sodipodi:namedview>
  <metadata
     id="metadata7">
    <rdf:RDF>
      <cc:Work
         rdf:about="">
        <dc:format>image/svg+xml</dc:format>
        <dc:type
           rdf:resource="http://purl.org/dc/dcmitype/StillImage" />
        <dc:title />
      </cc:Work>
    </rdf:RDF>
  </metadata>
  <g
     inkscape:label="Capa 1"
     inkscape:groupmode="layer"
     id="layer1"
     transform="translate(0,-1030.3622)">
    <path
       style="opacity:1;fill:#4d4d4d;fill-opacity:1;stroke:none;stroke-width:0.1;stroke-miterlimit:4;stroke-dasharray:none;stroke-opacity:1"
       d="M 3 4 L 3 5 L 19 5 L 19 4 L 3 4 z M 3 10 L 3 11 L 10 11 L 10 10 L 3 10 z M 12 10 L 12 13 L 15 13 L 15 10 L 12 10 z M 16 10 L 16 13 L 19 13 L 19 10 L 16 10 z M 12 15 L 12 18 L 15 18 L 15 15 L 12 15 z M 16 15 L 16 18 L 19 18 L 19 15 L 16 15 z M 3 16 L 3 17 L 10 17 L 10 16 L 3 16 z "
       transform="translate(0,1030.3622)"
       id="rect4156" />
  </g>
</svg>
